app/public/dtpr-icons/encrypted.svg

<svg width="36" height="36" viewBox="0 0 36 36" fill="none" xmlns="http://www.w3.org/2000/svg">
<path fill-rule="evenodd" clip-rule="evenodd" d="M14.5003 23.3374H21.5007V17.6493H14.5003V23.3374ZM15.9583 14.8791C15.9583 14.3337 16.1709 13.8208 16.5558 13.4349C16.9417 13.049 17.4546 12.8374 18 12.8374C18.5454 12.8374 19.0583 13.049 19.4442 13.4349C19.8291 13.8208 20.0417 14.3337 20.0417 14.8791V15.8999H15.9583V14.8791ZM22.3748 15.8999H21.792V14.8791C21.792 14.3672 21.6916 13.871 21.4938 13.4024C21.3018 12.9506 21.0291 12.546 20.6816 12.1975C20.3331 11.85 19.9275 11.5763 19.4767 11.3853C19.2788 11.3016 19.076 11.2357 18.8693 11.1874C18.8732 11.154 18.8752 11.1205 18.8752 11.087V6.71122C18.8752 6.22884 18.4834 5.83704 18 5.83704C17.5166 5.83704 17.1248 6.22884 17.1248 6.71122V11.087C17.1248 11.1205 17.1268 11.154 17.1307 11.1874C16.924 11.2357 16.7212 11.3016 16.5233 11.3853C16.0725 11.5763 15.6669 11.85 15.3184 12.1975C14.9709 12.546 14.6972 12.9506 14.5062 13.4024C14.3084 13.871 14.208 14.3672 14.208 14.8791V15.8999H13.6252C13.1408 15.8999 12.75 16.2918 12.75 16.7751V24.2125C12.75 24.6959 13.1408 25.0877 13.6252 25.0877H17.1248V26.838H15.5576C15.1638 26.838 14.9709 27.3106 15.2515 27.5823L17.6929 30.0315C17.8671 30.2068 18.1388 30.2068 18.314 30.0315L20.7554 27.5901C21.0262 27.3106 20.8342 26.838 20.4404 26.838H18.8752V25.0877H22.3748C22.8592 25.0877 23.25 24.6959 23.25 24.2125V16.7751C23.25 16.2918 22.8592 15.8999 22.3748 15.8999Z" fill="black"/>
<rect x="2" y="2" width="32" height="32" rx="16" stroke="black" stroke-width="2"/>
</svg>

<svg xmlns="http://www.w3.org/2000/svg" width="36" height="36" fill="none"><path fill="#000" fill-rule="evenodd" d="M14.5 23.337h7V17.65h-7zm1.458-8.458c0-.545.213-1.058.598-1.444A2.03 2.03 0 0 1 18 12.837c.545 0 1.058.212 1.444.598s.598.899.598 1.444v1.02h-4.084zm6.417 1.02h-.583v-1.02a3.78 3.78 0 0 0-1.11-2.681 3.8 3.8 0 0 0-1.813-1.01 1 1 0 0 0 .006-.101V6.711a.875.875 0 0 0-1.75 0v4.376q0 .05.006.1-.31.073-.608.198a3.8 3.8 0 0 0-2.315 3.494v1.02h-.583a.875.875 0 0 0-.875.876v7.438c0 .483.39.875.875.875h3.5v1.75h-1.567a.433.433 0 0 0-.306.744l2.44 2.45a.433.433 0 0 0 .622 0l2.441-2.442a.443.443 0 0 0-.315-.752h-1.565v-1.75h3.5a.875.875 0 0 0 .875-.876v-7.437a.875.875 0 0 0-.875-.875" clip-rule="evenodd"/><rect width="32" height="32" x="2" y="2" stroke="#000" stroke-width="2" rx="16"/></svg>
